X: 16637
T: Hangover, The
R: jig
M: 6/8
K: Dmajor
|:Ecc cdc|BGG GzG|AdA def|ecc czB|
=ceg gfe|ded BAG|AB=c BAB|GEE E2z:|
|:=ceg gfe|dBB BzB|dBB fef|gee ezd|
=ceg gfe|ded BAG|AB=c BAB|1 GEE Ez=c:|2 GEE E3||

